X: 1409
T: Castle Island
M:C|
L:1/8
N:"collected by Dillon"
B:O'Neill's 1409
Z:"Transcribed by Bob Safranek, rjs@gsp.org"
Z:All ornaments (~) are turns.
K:D
F>A (3.A.A.A dcAc|dcAc dcAG |F>A (3.A.A.A dcAc|1defd dcAG:|2dgfe d2 "  Fine"d2||
fa  ~a2      geeg|fddf ecAc |fa  ~a2      geeg| fded cA A z     |
affa         geeg|fddc defg |afge         fdec| defe dcA"D.C."G |]


